X:1
T:Title
%%score { ( 1 3 ) | 2 }
L:1/8
M:4/4
K:C
V:1 treble nm="Grand Piano"
V:3 treble 
V:2 bass 
V:1
 z4 z2[Q:1/4=100] [EG]>[DF] | E>E E>E E>D C>E |[M:3/4] [EG]>[EG] [EG]>[CE] [EG]2 | %3
[M:1/4] [EG]>[EG] |[M:4/4] A>A A>c [Ec]>G E>C |[M:3/4] [B,D]>[A,C] [B,D]>[CE] [B,D]2 | %6
[M:1/4] [B,G]>[DF] |[M:4/4] E>E E>E E>D C>E |[M:3/4] [EG]>[EG] [EG]>[CE] [EG]2 |[M:1/4] c>d | %10
[M:4/4] e>e e>c d2 d2 | [Ec]6 z2 | [EG]4 [G,CE]2 z2 | [Ec]4 [EG]2 [Ec]2 | %14
 [Ge]2 [Ec]2 [Fd]>[Ec] [EG]>[CE] | z4 z z/ F,/[K:treble] G>F | E>E E>E E>D C>E | %17
[M:3/4] [EG]>[EG] [EG]>[CE] [EG]2 |[M:1/4] c>d |[M:4/4] e>e e>c d2 d2 |[M:8/4] [Ec]8 z8 |] %21
V:2
 z4 z2 [C,C]>[C,G,] | [C,G,C]>[C,G,C] [C,G,C]>[C,G,C] [C,G,C]>[C,F,C] [C,E,]>[C,G,C] | %2
[M:3/4] [C,C]>[C,C] [C,C]>[C,G,] [C,C]2 |[M:1/4] [C,C]>[C,C] | %4
[M:4/4] [F,CF]>[F,CF] [F,CF]>[F,A,F] [C,G,]>G, E,>C, | %5
[M:3/4] [G,,G,]>[G,,G,] [G,,G,]>[G,,G,] [G,,G,]2 |[M:1/4] [G,,D,]>[G,,G,] | %7
[M:4/4] [C,G,C]>[C,G,C] [C,G,C]>[C,G,C] [C,G,C]>[C,F,C] [C,E,]>[C,G,C] | %8
[M:3/4] [C,C]>[C,C] [C,C]>[C,G,] [C,C]2 |[M:1/4][K:treble] [A,CF]>[^G,CF] | %10
[M:4/4] [G,CG]>[G,CG] [G,CG]>[K:bass][G,CE] [G,,B,F]2 [G,,B,F]2 | [C,C]6 z2 | [C,C]4 C,>C, E,>G, | %13
 [C,G,]4 [C,C]2 [C,C]2 | [C,C]2 [C,G,]2 [C,G,]>[C,G,] [C,G,]>[C,G,] | %15
 [G,,G,]2 G,>G, G,2 [E,G,C]>[D,G,B,] | %16
 [C,G,C]>[C,G,C] [C,G,C]>[C,G,C] [C,G,C]>[C,F,C] [C,E,]>[C,G,C] | %17
[M:3/4] [C,C]>[C,C] [C,C]>[C,G,] [C,C]2 |[M:1/4][K:treble] [A,CF]>[^G,CF] | %19
[M:4/4] [G,CG]>[G,CG] [G,CG]>[K:bass][G,CE] [G,,B,F]2 [G,,B,F]2 |[M:8/4] [C,C]8 z8 |] %21
V:3
 x8 | x8 |[M:3/4] x6 |[M:1/4] x2 |[M:4/4] x8 |[M:3/4] x6 |[M:1/4] x2 |[M:4/4] x8 |[M:3/4] x6 | %9
[M:1/4] x2 |[M:4/4] x8 | x8 | x8 | x8 | x8 | [B,D]6[K:treble] z2 | x8 |[M:3/4] x6 |[M:1/4] x2 | %19
[M:4/4] x8 |[M:8/4] x16 |] %21

